src/actions/16/node-type-symmetric.svg

<svg xmlns="http://www.w3.org/2000/svg" viewBox="0 0 16 16">
  <defs id="defs3051">
    <style type="text/css" id="current-color-scheme">
      .ColorScheme-Text {
        color:#2e3440;
      }
      .ColorScheme-Highlight {
        color:#88c0d0;
      }
      </style>
  </defs>
  <path 
        style="fill:currentColor;fill-opacity:1;stroke:none"
        d="M 1.0039062 2 A 7 9 0 0 0 7.0039062 10.898438 L 7.0039062 9.8789062 A 6 8 0 0 1 2.0039062 2 L 1.0039062 2 z M 14.003906 2 A 6 8 0 0 1 9.0039062 9.8867188 L 9.0039062 10.896484 A 7 9 0 0 0 15.003906 2.0019531 L 14.003906 2 z M 2.5039062 10 A 1.5 1.5 0 0 0 1.0039062 11.5 A 1.5 1.5 0 0 0 2.5039062 13 A 1.5 1.5 0 0 0 3.9179688 12 L 5 12 L 5 11 L 3.9179688 11 A 1.5 1.5 0 0 0 2.5039062 10 z M 13.503906 10 A 1.5 1.5 0 0 0 12.091797 11 L 11 11 L 11 12 L 12.091797 12 A 1.5 1.5 0 0 0 13.503906 13 A 1.5 1.5 0 0 0 15.003906 11.5 A 1.5 1.5 0 0 0 13.503906 10 z M 2.5039062 11 A 0.500002 0.5 0 0 1 3 11.441406 L 3 11.5625 A 0.500002 0.5 0 0 1 2.5039062 12 A 0.500002 0.5 0 0 1 2.0039062 11.5 A 0.500002 0.5 0 0 1 2.5039062 11 z M 13.503906 11 A 0.500002 0.5 0 0 1 14.003906 11.5 A 0.500002 0.5 0 0 1 13.503906 12 A 0.500002 0.5 0 0 1 13.003906 11.5 A 0.500002 0.5 0 0 1 13.503906 11 z "
        class="ColorScheme-Text"
        />
  <path
        style="fill:currentColor;fill-opacity:1;stroke:none"
        d="m 8,8 -3,5 6,0 z m 0,2 1,2 -2,0 z"
        class="ColorScheme-Highlight"
      />
</svg>

<svg viewBox="0 0 16 16" xmlns="http://www.w3.org/2000/svg">
 <defs>
  <style type="text/css">.ColorScheme-Text {
        color:#2e3440;
      }
      .ColorScheme-Highlight {
        color:#88c0d0;
      }</style>
 </defs>
 <path class="ColorScheme-Text" d="m1.0039 2a7 9 0 0 0 6 8.8984v-1.0195a6 8 0 0 1-5-7.8789h-1zm13 0a6 8 0 0 1-5 7.8867v1.0098a7 9 0 0 0 6-8.8945l-1-0.0019531zm-11.5 8a1.5 1.5 0 0 0-1.5 1.5 1.5 1.5 0 0 0 1.5 1.5 1.5 1.5 0 0 0 1.4141-1h1.082v-1h-1.082a1.5 1.5 0 0 0-1.4141-1zm11 0a1.5 1.5 0 0 0-1.4121 1h-1.0918v1h1.0918a1.5 1.5 0 0 0 1.4121 1 1.5 1.5 0 0 0 1.5-1.5 1.5 1.5 0 0 0-1.5-1.5zm-11 1a0.5 0.5 0 0 1 0.49609 0.44141v0.12109a0.5 0.5 0 0 1-0.49609 0.4375 0.5 0.5 0 0 1-0.5-0.5 0.5 0.5 0 0 1 0.5-0.5zm11 0a0.5 0.5 0 0 1 0.5 0.5 0.5 0.5 0 0 1-0.5 0.5 0.5 0.5 0 0 1-0.5-0.5 0.5 0.5 0 0 1 0.5-0.5z" fill="currentColor"/>
 <path class="ColorScheme-Highlight" d="m8 8-3 5h6zm0 2 1 2h-2z" fill="currentColor"/>
</svg>
